!!!!SEGMENT: pl-wru--50044-muz--011_buchner-philipp-friedrich--plectrum-musicum-sonata-xi.krn
!!!cenid: 16xx:1812
!!!COM: Buchner, Philipp Friedrich
!!!COM-rismID: pe30013776
!!!CDT:
!!!CNT:
!!!GTL: Plectrum musicum
!!!OTL: Sonata XI
!!!OMV: 011
!!!PDT: 1662
!!!AGN:
!!!SMS-siglum: PL-WRu
!!!SMS-shelfmark: 50044 Muz.
!!!SMS-shelfwork: 001-011 G
!!!SMS-variant:
!!!SMS-altvar:
!!!NIFC-rismSourceID: 990007465
!!!NIFC-rismChildID: 990007465
!!!NIFC-islandoraID: none
!!!URL-pdf-islandora:
!!!URL-scan: https://www.bibliotekacyfrowa.pl/dlibra/doccontent?id=116 @EN{Scan on Digital Library of University of Wroclaw} @PL{Skany w portalu Biblioteka Cyfrowa Uniwersytetu Wrocławskiego}
!!!IIIF:
!!!ONB-nifc: UWAGA: Violino I: s. 11-12, Viola da braccio: s. 37, Viola da gamba: s. 47-48, Bassus: s. 72, Bassus continuus: s. 87
!!!AIN: 1 violn 1 violt
!!!key: C
**kern	**fing	**kern	**fing	**kern	**kern	**kern
*part5	*part5	*part4	*part4	*part3	*part2	*part1
*staff5	*	*staff4	*	*staff3	*staff2	*staff1
*I"CONTINUUS.	*	*I"BASSVS	*	*I"VIOLA	*I"VIOLA DA BRACCIO.	*I"VIOLINO I.
*I'bc	*	*I'b	*	*I'vla da gamba	*I'vla da braccio	*I'vl 1
*	*	*	*	*ICstr	*ICstr	*ICstr
*	*	*	*	*Iviolt	*	*Ivioln
*IGcont	*	*IGcont	*	*	*	*
*clefF4	*	*clefF4	*	*clefC4	*clefC1	*clefG2
*k[]	*	*k[]	*	*k[]	*k[]	*k[]
*C:	*	*C:	*	*C:	*C:	*C:
*M2/2	*	*M2/2	*	*M2/2	*M2/2	*M2/2
*met(C|)	*	*met(C|)	*	*met(C|)	*met(C|)	*met(C|)
=1-	=1-	=1-	=1-	=1-	=1-	=1-
!LO:TX:a:t=Sonata XI.	!	!LO:TX:a:t=Sonata XI.	!	!LO:TX:b:B:t=Adagio.	!LO:TX:b:B:t=Adagio.	!LO:TX:b:B:t=Adagio.
!LO:TX:b:B:t=Adagio.	!	!LO:TX:b:B:t=Adagio.	!	!LO:TX:a:t=Sonata XI.	!LO:TX:a:t=Sonata XI.	!LO:TX:a:t=Sonata XI.
4C/	.	4C/	.	8r	00r	00r
.	.	.	.	8.c\	.	.
4E\	.	4E\	.	.	.	.
.	.	.	.	16c\	.	.
.	.	.	.	16c\	.	.
.	.	.	.	16c\	.	.
4F\	6	4F\	6	8d\	.	.
.	.	.	.	8.A/	.	.
4F#X\	.	4F#X\	.	.	.	.
.	.	.	.	16A/	.	.
.	.	.	.	16A/	.	.
!	!	!	!	!LO:TX:t=P:problem:kreska pseudotaktowa	!	!
.	.	.	.	16A/	.	.
=2-	=2-	=2-	=2-	=2-	=2-	=2-
2G\	.	2G\	.	8B\	.	.
.	.	.	.	8.d\	.	.
.	.	.	.	16d\	.	.
.	.	.	.	16d\	.	.
.	.	.	.	16d\	.	.
2G#X\	.	2G#X\	.	8e\	.	.
.	.	.	.	8.B\	.	.
.	.	.	.	16B\	.	.
.	.	.	.	16B\	.	.
!	!	!	!	!LO:TX:t=P:problem:kreska pseudotaktowa	!	!
.	.	.	.	16B\	.	.
=3-	=3-	=3-	=3-	=3-	=3-	=3-
4A\	.	4A\	.	8c\	.	.
*	*	*	*	*clefF4	*	*
.	.	.	.	16E\	.	.
.	.	.	.	16F\	.	.
4Gny\	.	4Gny\	.	8G\	.	.
.	.	.	.	8GG/	.	.
4Fny\	.	4Fny\	.	8AA/	.	.
.	.	.	.	16A\	.	.
.	.	.	.	16B\	.	.
4E\	.	4E\	.	8c\	.	.
!	!	!	!	!LO:TX:t=P:problem:kreska pseudotaktowa	!	!
.	.	.	.	8E\	.	.
=4-	=4-	=4-	=4-	=4-	=4-	=4-
4F\	.	4F\	.	8F\	.	.
.	.	.	.	8D/	.	.
4G\	.	4G\	.	8G\	.	.
.	.	.	.	8GG/	.	.
!LO:TX:t=P:problem:kreska pseudotaktowa	!	!LO:TX:t=P:problem:kreska pseudotaktowa	!	!	!	!
2C/	.	2C/	.	2C/	.	.
=5-	=5-	=5-	=5-	=5-	=5-	=5-
2C/	.	2C/	.	00r	0r	8ee\
.	.	.	.	.	.	8gg\
.	.	.	.	.	.	8gg\
.	.	.	.	.	.	8ee\
2AA/	.	2AA/	.	.	.	8cc\
.	.	.	.	.	.	8ee\
.	.	.	.	.	.	8ee\
!	!	!	!	!	!	!LO:TX:t=P:problem:kreska pseudotaktowa
.	.	.	.	.	.	8cc\
=6-	=6-	=6-	=6-	=6-	=6-	=6-
2F\	.	2F\	.	.	.	8a/
.	.	.	.	.	.	8cc\
.	.	.	.	.	.	8cc\
.	.	.	.	.	.	8a/
4D/	.	4D/	.	.	.	8f/
.	.	.	.	.	.	8aa\
4BB-X/	.	4BB-X/	.	.	.	8bb-X\
.	.	.	.	.	.	8aa\
=7-	=7-	=7-	=7-	=7-	=7-	=7-
2C/	6:5 4:3	2C/	6:5 4:3	.	2r	4aa\
.	.	.	.	.	.	4gg\
4FF/	.	4FF/	.	.	8r	2ff\
.	.	.	.	.	8.cc\	.
!LO:TX:t=P:problem:kreska pseudotaktowa	!	!LO:TX:t=P:problem:kreska pseudotaktowa	!	!	!	!
4F\	.	4F\	.	.	.	.
.	.	.	.	.	16cc\	.
.	.	.	.	.	16cc\	.
!	!	!	!	!	!LO:TX:t=P:problem:kreska pseudotaktowa	!
.	.	.	.	.	16cc\	.
=8-	=8-	=8-	=8-	=8-	=8-	=8-
2F#X\	.	2F#X\	.	.	8dd\	1r
.	.	.	.	.	8.a\	.
.	.	.	.	.	16a\	.
.	.	.	.	.	16a\	.
.	.	.	.	.	16a\	.
2G\	.	2G\	.	.	8b\	.
.	.	.	.	.	8.dd\	.
.	.	.	.	.	16dd\	.
.	.	.	.	.	16dd\	.
!	!	!	!	!	!LO:TX:t=P:problem:kreska pseudotaktowa	!
.	.	.	.	.	16dd\	.
=9-	=9-	=9-	=9-	=9-	=9-	=9-
2G#X\	.	2G#X\	.	0r	8ee\	00r
.	.	.	.	.	8.b\	.
.	.	.	.	.	16b\	.
.	.	.	.	.	16b\	.
.	.	.	.	.	16b\	.
4A\	.	4A\	.	.	8cc\	.
.	.	.	.	.	16e/	.
.	.	.	.	.	16f/	.
4B\	.	4B\	.	.	8g/	.
!	!	!	!	!	!LO:TX:t=P:problem:kreska pseudotaktowa	!
.	.	.	.	.	8d/	.
=10-	=10-	=10-	=10-	=10-	=10-	=10-
8c\	.	8c\	.	.	8e/	.
8Fny\	.	8Fny\	.	.	16a\	.
.	.	.	.	.	16b\	.
8E\	.	8E\	.	.	8cc\	.
!	!	!	!	!	!LO:TX:t=P:problem:kreska pseudotaktowa	!
8C/	.	8C/	.	.	8e/	.
8D/	#	8D/	#	.	8f#X/	.
8E\	.	8E\	.	.	8g/	.
!LO:TX:t=P:problem:kreska pseudotaktowa	!	!LO:TX:t=P:problem:kreska pseudotaktowa	!	!	!	!
4D/	#	4D/	#	.	8.a\	.
.	.	.	.	.	16a\	.
*	*	*	*	*clefC4	*	*
*	*	*	*	*custos:B	*	*
!	!	!	!	!LO:LB:g=original	!	!
=11-	=11-	=11-	=11-	=11-	=11-	=11-
4GG/	.	4GG/	.	8B\	2g/	.
.	.	.	.	8d\	.	.
4Gny\	.	4Gny\	.	8d\	.	.
.	.	.	.	8B\	.	.
2E\	.	2E\	.	8G/	2r	.
.	.	.	.	8B\	.	.
.	.	.	.	8B\	.	.
!	!	!	!	!LO:TX:t=P:problem:kreska pseudotaktowa	!	!
.	.	.	.	8G/	.	.
*custos:E	*	*custos:E	*	*	*custos:b	*
!LO:LB:g=original	!	!LO:LB:g=original	!	!	!LO:LB:g=original	!
=12-	=12-	=12-	=12-	=12-	=12-	=12-
2C/	.	2C/	.	8E/	00r	.
.	.	.	.	8G/	.	.
.	.	.	.	8G/	.	.
.	.	.	.	8E/	.	.
4AA/	.	4AA/	.	8C/	.	.
.	.	.	.	8e\	.	.
4FF/	.	4FF/	.	8f\	.	.
.	.	.	.	8e\	.	.
=13-	=13-	=13-	=13-	=13-	=13-	=13-
2GG/	6:5 4:3	2GG/	6:5 4:3	4e\	.	2r
.	.	.	.	4d\	.	.
!LO:TX:t=P:problem:kreska pseudotaktowa	!	!LO:TX:t=P:problem:kreska pseudotaktowa	!	!	!	!
2C/	#	2C/	#	2c\	.	8r
.	.	.	.	.	.	8.gg\
.	.	.	.	.	.	16gg\
.	.	.	.	.	.	16gg\
!	!	!	!	!	!	!LO:TX:t=P:problem:kreska pseudotaktowa
.	.	.	.	.	.	16gg\
=14-	=14-	=14-	=14-	=14-	=14-	=14-
2AA/	.	2AA/	.	0r	.	8aa\
.	.	.	.	.	.	8.ee\
.	.	.	.	.	.	16ee\
.	.	.	.	.	.	16ee\
.	.	.	.	.	.	16ee\
2D/	#	2D/	#	.	.	8ff#X\
.	.	.	.	.	.	8.aa\
.	.	.	.	.	.	16aa\
.	.	.	.	.	.	16aa\
.	.	.	.	.	.	16aa\
*	*	*	*	*	*	*custos:bb
!	!	!	!	!	!	!LO:LB:g=original
=15-	=15-	=15-	=15-	=15-	=15-	=15-
4BBny/	#	4BBny/	#	.	.	8bbny\
.	.	.	.	.	.	8.ff#X\
4AA/	6 #	4AA/	6 #	.	.	.
.	.	.	.	.	.	16ff#\
.	.	.	.	.	.	16ff#\
.	.	.	.	.	.	16ff#\
4GG/	.	4GG/	.	.	.	8gg\
.	.	.	.	.	.	16b/
.	.	.	.	.	.	16cc\
4FF#X/	.	4FF#X/	.	.	.	8dd\
!	!	!	!	!	!	!LO:TX:t=P:problem:kreska pseudotaktowa
.	.	.	.	.	.	8a/
=16-	=16-	=16-	=16-	=16-	=16-	=16-
4GG/	.	4GG/	.	1r	1r	8b/
.	.	.	.	.	.	16gg\
.	.	.	.	.	.	16aa\
4EE/	.	4EE/	.	.	.	8bb\
.	.	.	.	.	.	8ee\
8BB/	.	8BB/	.	.	.	8ff#X\
8GG/	6	8GG/	6	.	.	8gg\
!LO:TX:t=P:problem:kreska pseudotaktowa	!	!LO:TX:t=P:problem:kreska pseudotaktowa	!	!	!	!
4BB/	4#r	4BB/	4#r	.	.	8.ff#X\
.	.	.	.	.	.	16ff#\
=17-	=17-	=17-	=17-	=17-	=17-	=17-
2E\	.	2E\	.	2r	8r	2ee\
.	.	.	.	.	8.b\	.
.	.	.	.	.	16b\	.
.	.	.	.	.	16b\	.
.	.	.	.	.	16b\	.
*clefC4	*	*clefC4	*	*	*	*
!	!	!	!	!	!	!LO:TX:t=P:problem:kreska pseudotaktowa
2e\	6	2e\	6	8r	8cc\	2r
.	.	.	.	8.e\	8.g/	.
.	.	.	.	16e\	16g/	.
.	.	.	.	16e\	16g/	.
!	!	!	!	!LO:TX:t=P:problem:kreska pseudotaktowa	!LO:TX:t=P:problem:kreska pseudotaktowa	!
.	.	.	.	16e\	16g/	.
=18-	=18-	=18-	=18-	=18-	=18-	=18-
8f\	.	8f\	.	8f\	4a\	8r
4c\	6	4c\	6	8.c\	.	8.ee\
.	.	.	.	.	4r	.
.	.	.	.	16c\	.	16ee\
8c\	.	8c\	.	16c\	.	16ee\
.	.	.	.	16c\	.	16ee\
2d\	.	2d\	.	8d\	8r	8ffny\
.	.	.	.	8f\	8.a\	8aa\
.	.	.	.	8f\	.	8aa\
.	.	.	.	.	16a\	.
!	!	!	!	!	!	!LO:TX:t=P:problem:kreska pseudotaktowa
.	.	.	.	8d\	16a\	8ff\
.	.	.	.	.	16a\	.
=19-	=19-	=19-	=19-	=19-	=19-	=19-
2B\	.	2B\	.	8B\	4b\	8dd\
.	.	.	.	8d\	.	8.gg\
.	.	.	.	8d\	4r	.
.	.	.	.	.	.	16gg\
.	.	.	.	8B\	.	16gg\
.	.	.	.	.	.	16gg\
*	*	*	*	*custos:G	*	*
!LO:TX:t=P:problem:kreska pseudotaktowa	!	!LO:TX:t=P:problem:kreska pseudotaktowa	!	!LO:LB:g=original	!	!
2G/	.	2G/	.	8G/	8b\	4bb\
.	.	.	.	8.d\	8dd\	.
.	.	.	.	.	8dd\	4r
.	.	.	.	16d\	.	.
!	!	!	!	!	!LO:TX:t=P:problem:kreska pseudotaktowa	!
.	.	.	.	16d\	8b\	.
!	!	!	!	!LO:TX:t=P:problem:kreska pseudotaktowa	!	!
.	.	.	.	16d\	.	.
=20-	=20-	=20-	=20-	=20-	=20-	=20-
2E/	.	2E/	.	8e\	8g/	2r
.	.	.	.	8.B\	8b\	.
.	.	.	.	.	8b\	.
.	.	.	.	16B\	.	.
.	.	.	.	16B\	8g/	.
.	.	.	.	16B\	.	.
4C/	.	4C/	.	4c\	8e/	8r
.	.	.	.	.	8g/	8.gg\
!	!	!	!	!LO:TX:t=P:problem:kreska pseudotaktowa	!	!
4c\	.	4c\	.	4r	8g/	.
.	.	.	.	.	.	16gg\
!	!	!	!	!	!LO:TX:t=P:problem:kreska pseudotaktowa	!
.	.	.	.	.	8e/	16gg\
.	.	.	.	.	.	16gg\
=21-	=21-	=21-	=21-	=21-	=21-	=21-
4A/	.	4A/	.	2r	8c/	4aa\
.	.	.	.	.	8ee\	.
4F/	.	4F/	.	.	8ff\	4r
.	.	.	.	.	8ee\	.
!	!	!	!	!	!	!LO:TX:t=P:problem:kreska pseudotaktowa
2G/	6:5 3	2G/	6:5 3	8r	4ee\	2r
.	.	.	.	8.B\	.	.
.	.	.	.	.	4dd\	.
.	.	.	.	16B\	.	.
.	.	.	.	16B\	.	.
!	!	!	!	!LO:TX:t=P:problem:kreska pseudotaktowa	!	!
.	.	.	.	16B\	.	.
*clefF4	*	*clefF4	*	*	*	*
=22-	=22-	=22-	=22-	=22-	=22-	=22-
4C/	.	4C/	.	8c\	2cc\	8ee\
.	.	.	.	8.E/	.	8gg\
4E\	.	4E\	.	.	.	8gg\
.	.	.	.	16E/	.	.
.	.	.	.	16E/	.	8ee\
.	.	.	.	16E/	.	.
!	!	!	!	!	!LO:TX:t=P:problem:kreska pseudotaktowa	!
2F\	.	2F\	.	4F/	2r	8cc\
.	.	.	.	.	.	8.cc\
!	!	!	!	!LO:TX:t=P:problem:kreska pseudotaktowa	!	!
.	.	.	.	4r	.	.
.	.	.	.	.	.	16cc\
.	.	.	.	.	.	16cc\
!	!	!	!	!	!	!LO:TX:t=P:problem:kreska pseudotaktowa
.	.	.	.	.	.	16cc\
*	*	*	*	*	*custos:A	*
!	!	!	!	!	!LO:LB:g=original	!
=23-	=23-	=23-	=23-	=23-	=23-	=23-
2F#X\	.	2F#X\	.	8r	8r	4dd\
.	.	.	.	8.F/	8.a\	.
.	.	.	.	.	.	4r
.	.	.	.	16F/	16a\	.
.	.	.	.	16F/	16a\	.
.	.	.	.	16F/	16a\	.
2G\	.	2G\	.	8G/	8b\	2r
.	.	.	.	8B\	8.d/	.
.	.	.	.	8B\	.	.
.	.	.	.	.	16d/	.
!	!	!	!	!LO:TX:t=P:problem:kreska pseudotaktowa	!	!
.	.	.	.	8G/	16d/	.
!	!	!	!	!	!LO:TX:t=P:problem:kreska pseudotaktowa	!
.	.	.	.	.	16d/	.
*	*	*	*	*custos:E	*	*
!	!	!	!	!LO:LB:g=original	!	!
=24-	=24-	=24-	=24-	=24-	=24-	=24-
1C	.	1C	.	8E/	4e/	8ee\
.	.	.	.	8e\	.	8gg\
.	.	.	.	8e\	4r	8gg\
.	.	.	.	8c\	.	8ee\
.	.	.	.	8e\	2r	8cc\
.	.	.	.	8g\	.	8ee\
.	.	.	.	8g\	.	8ee\
.	.	.	.	8e\	.	8cc\
*custos:F	*	*custos:F	*	*	*	*
!LO:LB:g=original	!	!LO:LB:g=original	!	!	!	!
=25-	=25-	=25-	=25-	=25-	=25-	=25-
2Fny\	.	2Fny\	.	8c\	8r	4a/
.	.	.	.	16F/	8.cc\	.
.	.	.	.	16A/	.	.
.	.	.	.	8A/	.	4r
.	.	.	.	.	16cc\	.
.	.	.	.	8F/	16cc\	.
.	.	.	.	.	16cc\	.
2D/	#	2D/	#	4D/	8dd\	8r
.	.	.	.	.	8.a\	8.ff#X\
!	!	!	!	!LO:TX:t=P:problem:kreska pseudotaktowa	!	!
.	.	.	.	4r	.	.
.	.	.	.	.	16a\	16ff#\
.	.	.	.	.	16a\	16ff#\
!	!	!	!	!	!LO:TX:t=P:problem:kreska pseudotaktowa	!LO:TX:t=P:problem:kreska pseudotaktowa
.	.	.	.	.	16a\	16ff#\
=26-	=26-	=26-	=26-	=26-	=26-	=26-
2BB/	.	2BB/	.	2r	8b\	8gg\
.	.	.	.	.	8dd\	8.dd\
.	.	.	.	.	8dd\	.
.	.	.	.	.	.	16dd\
.	.	.	.	.	8b\	16dd\
.	.	.	.	.	.	16dd\
2C/	.	2C/	.	8r	8g/	4ee\
.	.	.	.	8.G/	8b\	.
.	.	.	.	.	8b\	4r
.	.	.	.	16G/	.	.
!	!	!	!	!	!LO:TX:t=P:problem:kreska pseudotaktowa	!
.	.	.	.	16G/	8g/	.
!	!	!	!	!LO:TX:t=P:problem:kreska pseudotaktowa	!	!
.	.	.	.	16G/	.	.
*	*	*	*	*	*	*custos:ee
!	!	!	!	!	!	!LO:LB:g=original
=27-	=27-	=27-	=27-	=27-	=27-	=27-
2C#X/	.	2C#X/	.	8A/	4e/	8r
.	.	.	.	8.C#X/	.	8.ee\
.	.	.	.	.	4r	.
.	.	.	.	16C#/	.	16ee\
.	.	.	.	16C#/	.	16ee\
.	.	.	.	16C#/	.	16ee\
2D/	.	2D/	.	4D/	8r	8ffny\
.	.	.	.	.	8.a\	8aa\
!	!	!	!	!LO:TX:t=P:problem:kreska pseudotaktowa	!	!
.	.	.	.	4r	.	8aa\
.	.	.	.	.	16a\	.
!	!	!	!	!	!	!LO:TX:t=P:problem:kreska pseudotaktowa
.	.	.	.	.	16a\	8ff\
.	.	.	.	.	16a\	.
*	*	*	*	*	*custos:b	*
!	!	!	!	!	!LO:LB:g=original	!
=28-	=28-	=28-	=28-	=28-	=28-	=28-
4BB/	.	4BB/	.	8r	8b\	8dd\
.	.	.	.	8.B\	8dd\	8.dd\
4B\	.	4B\	.	.	8dd\	.
.	.	.	.	16B\	.	16dd\
.	.	.	.	16B\	8b\	16dd\
.	.	.	.	16B\	.	16dd\
8c\	.	8c\	.	8c\	8g/	4ee\
4G\	6	4G\	6	8.G/	8.b\	.
!	!	!	!	!	!	!LO:TX:t=P:problem:kreska pseudotaktowa
.	.	.	.	.	.	4r
.	.	.	.	16G/	16b\	.
!LO:TX:t=P:problem:kreska pseudotaktowa	!	!LO:TX:t=P:problem:kreska pseudotaktowa	!	!	!	!
8G\	.	8G\	.	16G/	16b\	.
!	!	!	!	!	!LO:TX:t=P:problem:kreska pseudotaktowa	!
.	.	.	.	16G/	16b\	.
*	*	*	*	*custos:A	*	*
!	!	!	!	!LO:LB:g=original	!	!
=29-	=29-	=29-	=29-	=29-	=29-	=29-
8A\	.	8A\	.	8A/	8cc\	8r
4c\	.	4c\	.	8.c\	8ee\	8.ee\
.	.	.	.	.	8ee\	.
.	.	.	.	16c\	.	16ee\
8c\	.	8c\	.	16c\	8cc\	16ee\
.	.	.	.	16c\	.	16ee\
8d\	.	8d\	.	8d\	8a\	8ff\
4A\	.	4A\	.	8.A/	8cc\	8.cc\
.	.	.	.	.	8cc\	.
.	.	.	.	16A/	.	16cc\
!LO:TX:t=P:problem:kreska pseudotaktowa	!	!LO:TX:t=P:problem:kreska pseudotaktowa	!	!	!LO:TX:t=P:problem:kreska pseudotaktowa	!
8A\	.	8A\	.	16A/	8a\	16cc\
!	!	!	!	!LO:TX:t=P:problem:kreska pseudotaktowa	!	!LO:TX:t=P:problem:kreska pseudotaktowa
.	.	.	.	16A/	.	16cc\
=30-	=30-	=30-	=30-	=30-	=30-	=30-
2B\	.	2B\	.	8B\	4g/	4dd\
.	.	.	.	8d\	.	.
.	.	.	.	8d\	4r	4r
.	.	.	.	8B\	.	.
2G\	.	2G\	.	8G/	8b\	8r
.	.	.	.	8B\	8dd\	8.b/
.	.	.	.	8B\	8dd\	.
.	.	.	.	.	.	16b/
!	!	!	!	!LO:TX:t=P:problem:kreska pseudotaktowa	!LO:TX:t=P:problem:kreska pseudotaktowa	!
.	.	.	.	8G/	8b\	16b/
!	!	!	!	!	!	!LO:TX:t=P:problem:kreska pseudotaktowa
.	.	.	.	.	.	16b/
=31-	=31-	=31-	=31-	=31-	=31-	=31-
2E\	.	2E\	.	8E/	8g/	8cc\
.	.	.	.	8.E/	8ee\	8gg\
.	.	.	.	.	8ee\	8gg\
.	.	.	.	16E/	.	.
.	.	.	.	16E/	8cc\	8ee\
.	.	.	.	16E/	.	.
2F\	.	2F\	.	8F/	8a\	8cc\
.	.	.	.	8.F/	8cc\	8aa\
.	.	.	.	.	8cc\	8aa\
!	!	!	!	!LO:TX:b:t=Ccc	!	!
.	.	.	.	16F/	.	.
.	.	.	.	16F/	8a\	8ff\
.	.	.	.	16F/	.	.
*	*	*	*	*	*	*custos:dd
!	!	!	!	!	!	!LO:LB:g=original
=32-	=32-	=32-	=32-	=32-	=32-	=32-
1G	7:4:3	1G	7:4:3	8G/	4b\	8dd\
.	.	.	.	8e\	.	8gg\
.	.	.	.	8e\	2cc\	8gg\
.	.	.	.	8c\	.	8ee\
.	.	.	.	4.G/	.	2dd\
.	.	.	.	.	4b\	.
.	.	.	.	8G/	.	.
=33-	=33-	=33-	=33-	=33-	=33-	=33-
!	!	!	!	!	!	!LO:TX:t=P:problem:kreska pseudotaktowa
1Cny	.	1Cny	.	1Cny	1cc	1cc
*	*	*	*	*custos:C	*custos:b	*
!	!	!	!	!LO:PB:g=original	!LO:LB:g=original	!
=34!|:-	=34!|:-	=34!|:-	=34!|:-	=34!|:-	=34!|:-	=34!|:-
*M6/4	*	*M6/4	*	*M6/4	*M6/4	*M6/4
!LO:TX:b:B:t=Allegro.	!	!LO:TX:b:B:t=Allegro.	!	!LO:TX:b:B:t=allegro.	!LO:TX:b:B:t=Allegro.	!LO:TX:b:B:t=Allegro.
2c\	.	2c\	.	4.C/	1.r	8ee\
.	.	.	.	.	.	8ff\
.	.	.	.	.	.	4gg\
.	.	.	.	8c\	.	.
4B\	.	4B\	.	4B\	.	4dd\
!	!	!	!	!LO:TX:t=P:problem:kreska pseudotaktowa	!	!
2.A\	.	2.A\	.	2.A/	.	4.cc\
.	.	.	.	.	.	8b/
!	!	!	!	!	!	!LO:TX:t=P:problem:kreska pseudotaktowa
.	.	.	.	.	.	4a/
=35-	=35-	=35-	=35-	=35-	=35-	=35-
2G\	.	2G\	.	4.G/	8b\	2.dd\
.	.	.	.	.	8cc\	.
.	.	.	.	.	4dd\	.
.	.	.	.	8G/	.	.
4F\	.	4F\	.	4F/	4a\	.
!	!	!	!	!LO:TX:t=P:problem:kreska pseudotaktowa	!	!LO:TX:t=P:problem:kreska pseudotaktowa
!	!	!	!	!	!	!LO:N:vis=2
2.E\	.	2.E\	.	2.E/	4.g/	2.r
.	.	.	.	.	8fny/	.
!	!	!	!	!	!LO:TX:t=P:problem:kreska pseudotaktowa	!
.	.	.	.	.	4e/	.
=36-	=36-	=36-	=36-	=36-	=36-	=36-
4D/	.	4D/	.	4.D/	2.a\	8ff\
.	.	.	.	.	.	8gg\
4d\	.	4d\	.	.	.	4aa\
.	.	.	.	8d\	.	.
4c\	.	4c\	.	4c\	.	4ee\
!	!	!	!	!LO:TX:t=P:problem:kreska pseudotaktowa	!LO:TX:t=P:problem:kreska pseudotaktowa	!
!	!	!	!	!	!LO:N:vis=2	!
2.B\	.	2.B\	.	2.B\	2.r	4.dd\
.	.	.	.	.	.	8cc\
!	!	!	!	!	!	!LO:TX:t=P:problem:kreska pseudotaktowa
.	.	.	.	.	.	4b/
=37-	=37-	=37-	=37-	=37-	=37-	=37-
2A\	.	2A\	.	4.A/	8cc\	2.ee\
.	.	.	.	.	8dd\	.
.	.	.	.	.	4ee\	.
.	.	.	.	8A/	.	.
4G\	6	4G\	6	4G/	4b\	.
!	!	!	!	!LO:TX:t=P:problem:kreska pseudotaktowa	!	!LO:TX:t=P:problem:kreska pseudotaktowa
!	!	!	!	!	!	!LO:N:vis=2
2.F\	.	2.F\	.	2.F/	4.a\	2.r
.	.	.	.	.	8g/	.
!	!	!	!	!	!LO:TX:t=P:problem:kreska pseudotaktowa	!
.	.	.	.	.	4f/	.
*custos:E	*	*custos:E	*	*	*	*
!LO:LB:g=original	!	!LO:LB:g=original	!	!	!	!
=38-	=38-	=38-	=38-	=38-	=38-	=38-
2E\	.	2E\	.	2.E/	2.g/	8ee\
.	.	.	.	.	.	8ff\
.	.	.	.	.	.	4gg\
4BB/	.	4BB/	.	.	.	4dd\
!	!	!	!	!LO:N:vis=2	!LO:N:vis=2	!
2AA/	.	2AA/	.	2.r	2.r	4.cc\
.	.	.	.	.	.	8b/
!	!	!	!	!	!	!LO:TX:t=P:problem:kreska pseudotaktowa
4A\	.	4A\	.	.	.	4a/
*	*	*	*	*clefF4	*	*
=39-	=39-	=39-	=39-	=39-	=39-	=39-
2G\	.	2G\	.	8G\	8b\	2.dd\
.	.	.	.	8A\	8cc\	.
.	.	.	.	4B\	4dd\	.
4F#X\	.	4F#X\	.	4F#X\	4a\	.
2E\	.	2E\	.	4.E\	4.g/	2.ee\
.	.	.	.	8D/	8f/	.
!LO:TX:t=P:problem:kreska pseudotaktowa	!	!LO:TX:t=P:problem:kreska pseudotaktowa	!	!	!LO:TX:t=P:problem:kreska pseudotaktowa	!
4C#X/	.	4C#X/	.	4C#X/	4e/	.
*	*	*	*	*	*	*custos:dd
!	!	!	!	!	!	!LO:LB:g=original
=40-	=40-	=40-	=40-	=40-	=40-	=40-
2D/	#	2D/	#	2D/	2f#X/	4.dd\
.	.	.	.	.	.	8cc\
4E\	.	4E\	.	4E\	4g/	4b/
4C#X/	6 5	4C#X/	6 5	4C#X/	2g/	2a/
!LO:TX:t=P:problem:kreska pseudotaktowa	!	!LO:TX:t=P:problem:kreska pseudotaktowa	!	!	!	!
2D/	4#r	2D/	4#r	2D/	.	.
!	!	!	!	!	!LO:TX:t=P:problem:kreska pseudotaktowa	!LO:TX:t=P:problem:kreska pseudotaktowa
.	.	.	.	.	4f#X/	4a/
=41-	=41-	=41-	=41-	=41-	=41-	=41-
2.GG/	.	2.GG/	.	2.GG/	2.g/	2.g/
!	!	!	!	!LO:N:vis=2	!	!
4GG/	.	4GG/	.	2.r	8b\	4.g/
.	.	.	.	.	8cc\	.
4BB/	.	4BB/	.	.	4dd\	.
.	.	.	.	.	.	8gg\
!	!	!	!	!	!	!LO:TX:t=P:problem:kreska pseudotaktowa
4D/	-	4D/	-	.	4a\	4ff\
*	*	*	*	*custos:E	*custos:g	*
!	!	!	!	!LO:LB:g=original	!LO:LB:g=original	!
=42-	=42-	=42-	=42-	=42-	=42-	=42-
2E\	.	2E\	.	4.E\	4.g/	2.ee\
.	.	.	.	8D/	8fny/	.
4Cny/	.	4Cny/	.	4Cny/	4e/	.
2D/	.	2D/	.	4.D/	4.f/	4.dd\
.	.	.	.	8E\	8g/	8dd\
!LO:TX:t=P:problem:kreska pseudotaktowa	!	!LO:TX:t=P:problem:kreska pseudotaktowa	!	!	!LO:TX:t=P:problem:kreska pseudotaktowa	!
4Fny\	.	4Fny\	.	4Fny\	4a\	4cc\
=43-	=43-	=43-	=43-	=43-	=43-	=43-
4D/	6 5	4D/	6 5	4D/	2a\	2.b/
2E\	4#r	2E\	4#r	2E\	.	.
.	.	.	.	.	4g#X/	.
!LO:TX:t=P:problem:kreska pseudotaktowa	!	!LO:TX:t=P:problem:kreska pseudotaktowa	!	!LO:TX:t=P:problem:kreska pseudotaktowa	!LO:TX:t=P:problem:kreska pseudotaktowa	!LO:TX:t=P:problem:kreska pseudotaktowa
2.AA/	.	2.AA/	.	2.AA/	2.a\	2.a/
*	*	*	*	*clefC4	*	*
=44-	=44-	=44-	=44-	=44-	=44-	=44-
2AA/	.	2AA/	.	1.r	8a\	0.r
.	.	.	.	.	8b\	.
.	.	.	.	.	4cc\	.
4E\	.	4E\	.	.	4gny/	.
!LO:TX:t=P:problem:kreska pseudotaktowa	!	!LO:TX:t=P:problem:kreska pseudotaktowa	!	!	!	!
2.D/	.	2.D/	.	.	4.f/	.
.	.	.	.	.	8e/	.
!	!	!	!	!	!LO:TX:t=P:problem:kreska pseudotaktowa	!
.	.	.	.	.	4d/	.
=45-	=45-	=45-	=45-	=45-	=45-	=45-
2C/	.	2C/	.	8e\	2.g/	.
.	.	.	.	8f\	.	.
.	.	.	.	4g\	.	.
4BB/	.	4BB/	.	4d\	.	.
2C/	.	2C/	.	4.c\	4.e/	.
.	.	.	.	8B\	8d/	.
!LO:TX:t=P:problem:kreska pseudotaktowa	!	!LO:TX:t=P:problem:kreska pseudotaktowa	!	!LO:TX:t=P:problem:kreska pseudotaktowa	!LO:TX:t=P:problem:kreska pseudotaktowa	!
[<4F\	.	[<4F\	.	4A/	4c/	.
=46-	=46-	=46-	=46-	=46-	=46-	=46-
2F\]	6 4	2F\]	6 4	4.B\	4.d/	1.r
.	.	.	.	8B\	8d/	.
4E\	6	4E\	6	4c\	4e/	.
4F\	6 5	4F\	6 5	2c\	2.d/	.
2G\	4:3	2G\	4:3	.	.	.
.	.	.	.	4B\	.	.
*custos:C	*	*custos:C	*	*	*	*
!LO:LB:g=original	!	!LO:LB:g=original	!	!	!	!
=47-	=47-	=47-	=47-	=47-	=47-	=47-
2C/	.	2C/	.	2c\	4.e/	4.g/
.	.	.	.	.	8ee\	8gg\
4D/	.	4D/	.	4r	4dd\	4ff\
!	!	!	!	!LO:TX:t=P:problem:kreska pseudotaktowa	!LO:TX:t=P:problem:kreska pseudotaktowa	!LO:TX:t=P:problem:kreska pseudotaktowa
!	!	!	!	!LO:N:vis=2	!	!
2.AA/	-	2.AA/	-	2.r	2.cc\	2.ee\
=48-	=48-	=48-	=48-	=48-	=48-	=48-
2D/	.	2D/	.	8d\	4.d/	4.f/
.	.	.	.	8e\	.	.
.	.	.	.	4f\	.	.
.	.	.	.	.	8dd\	8ff\
4AA/	.	4AA/	.	4c\	4cc\	4ee\
4.BB/	.	4.BB/	.	4.d\	2.b\	2.dd\
8AA/	.	8AA/	.	8c\	.	.
!LO:TX:t=P:problem:kreska pseudotaktowa	!	!LO:TX:t=P:problem:kreska pseudotaktowa	!	!LO:TX:t=P:problem:kreska pseudotaktowa	!	!
4GG/	.	4GG/	.	4B\	.	.
*	*	*	*	*	*custos:a	*
!	!	!	!	!	!LO:LB:g=original	!
=49-	=49-	=49-	=49-	=49-	=49-	=49-
2AA/	.	2AA/	.	4.e\	4.a\	4.cc\
*	*	*	*	*clefF4	*	*
.	.	.	.	8AA/	8a\	8cc\
4BB/	.	4BB/	.	4BB/	4g/	4b/
4C/	6 5	4C/	6 5	4C/	2g/	2.a/
!LO:TX:t=P:problem:kreska pseudotaktowa	!	!LO:TX:t=P:problem:kreska pseudotaktowa	!	!	!	!
2D/	4#r	2D/	4#r	2D/	.	.
!	!	!	!	!	!LO:TX:t=P:problem:kreska pseudotaktowa	!
.	.	.	.	.	4f#X/	.
*	*	*	*	*custos:E	*	*
!	!	!	!	!LO:LB:g=original	!	!
=50-	=50-	=50-	=50-	=50-	=50-	=50-
2E\	.	2E\	.	8E\	2.g/	2.g/
.	.	.	.	8F\	.	.
.	.	.	.	4G\	.	.
4D/	.	4D/	.	4D/	.	.
!	!	!	!	!	!LO:TX:t=P:problem:kreska pseudotaktowa	!
!	!	!	!	!	!LO:N:vis=2	!LO:N:vis=2
2C/	.	2C/	.	4.C/	2.r	2.r
.	.	.	.	8BB/	.	.
!LO:TX:t=P:problem:kreska pseudotaktowa	!	!LO:TX:t=P:problem:kreska pseudotaktowa	!	!LO:TX:t=P:problem:kreska pseudotaktowa	!	!
4AA/	.	4AA/	.	4AA/	.	.
=51-	=51-	=51-	=51-	=51-	=51-	=51-
2A\	.	2A\	.	8A\	2.r	1.r
.	.	.	.	8B\	.	.
.	.	.	.	4c\	.	.
4G\	.	4G\	.	4G\	.	.
2F\	.	2F\	.	4.F\	8a\	.
.	.	.	.	.	8b\	.
.	.	.	.	.	4cc\	.
.	.	.	.	8F\	.	.
!LO:TX:t=P:problem:kreska pseudotaktowa	!	!LO:TX:t=P:problem:kreska pseudotaktowa	!	!LO:TX:t=P:problem:kreska pseudotaktowa	!LO:TX:t=P:problem:kreska pseudotaktowa	!
4E\	.	4E\	.	4E\	4g/	.
=52-	=52-	=52-	=52-	=52-	=52-	=52-
2D/	.	2D/	.	4.D/	2.r	8ff\
.	.	.	.	.	.	8gg\
.	.	.	.	.	.	4aa\
.	.	.	.	8D/	.	.
4C/	.	4C/	.	4C/	.	4ee\
!	!	!	!	!	!	!LO:N:vis=2
2G\	.	2G\	.	2G\	8b\	2.r
.	.	.	.	.	8cc\	.
.	.	.	.	.	4dd\	.
!LO:TX:t=P:problem:kreska pseudotaktowa	!	!LO:TX:t=P:problem:kreska pseudotaktowa	!	!LO:TX:t=P:problem:kreska pseudotaktowa	!LO:TX:t=P:problem:kreska pseudotaktowa	!
4F\	.	4F\	.	4r	4a\	.
*	*	*	*	*	*	*custos:aa
!	!	!	!	!	!	!LO:LB:g=original
=53-	=53-	=53-	=53-	=53-	=53-	=53-
!	!	!	!	!	!LO:N:vis=2	!
2E\	.	2E\	.	8E\	2.r	1.r
.	.	.	.	8F\	.	.
.	.	.	.	4G\	.	.
4D/	.	4D/	.	4D/	.	.
2A\	.	2A\	.	4.AA/	8cc\	.
.	.	.	.	.	8dd\	.
.	.	.	.	.	4ee\	.
.	.	.	.	8A\	.	.
!LO:TX:t=P:problem:kreska pseudotaktowa	!	!LO:TX:t=P:problem:kreska pseudotaktowa	!	!LO:TX:t=P:problem:kreska pseudotaktowa	!LO:TX:t=P:problem:kreska pseudotaktowa	!
4G\	.	4G\	.	4G\	4b\	.
=54-	=54-	=54-	=54-	=54-	=54-	=54-
2F\	.	2F\	.	2F\	4.a\	8aa\
.	.	.	.	.	.	8bb\
.	.	.	.	.	.	4ccc\
.	.	.	.	.	8b\	.
4E\	.	4E\	.	4E\	4cc\	4gg\
!LO:TX:t=P:problem:kreska pseudotaktowa	!	!LO:TX:t=P:problem:kreska pseudotaktowa	!	!	!	!
2.D/	5:6	2.D/	5:6	2D/	4.dd\	4.ff\
.	.	.	.	.	8cc\	8ee\
!	!	!	!	!LO:TX:t=P:problem:kreska pseudotaktowa	!LO:TX:t=P:problem:kreska pseudotaktowa	!LO:TX:t=P:problem:kreska pseudotaktowa
.	.	.	.	4r	4b\	4dd\
=55-	=55-	=55-	=55-	=55-	=55-	=55-
2C/	.	2C/	.	8C/	4.e/	2.gg\
.	.	.	.	8D/	.	.
.	.	.	.	4E\	.	.
.	.	.	.	.	8ee\	.
4BB/	.	4BB/	.	4BB/	4dd\	.
!	!	!	!	!	!	!LO:N:vis=2
2.AA/	.	2.AA/	.	2.AA/	4.cc\	2.r
.	.	.	.	.	8b\	.
.	.	.	.	.	4a\	.
*	*	*	*	*custos:E	*custos:b	*
!	!	!	!	!LO:LB:g=original	!LO:LB:g=original	!
=56-	=56-	=56-	=56-	=56-	=56-	=56-
2GG/	.	2GG/	.	4.GG/	4.b\	8ee\
.	.	.	.	.	.	8ff\
.	.	.	.	.	.	4gg\
.	.	.	.	8GG/	8b\	.
4AA/	.	4AA/	.	4AA/	4cc\	4ee\
!	!	!	!	!LO:TX:t=P:problem:kreska pseudotaktowa	!	!
4FFny/	.	4FFny/	.	4FF/	2cc\	2.dd\
2GG/	.	2GG/	.	2GG/	.	.
.	.	.	.	.	4b\	.
*custos:C	*	*custos:C	*	*	*	*
!LO:LB:g=original	!	!LO:LB:g=original	!	!	!	!
=57-	=57-	=57-	=57-	=57-	=57-	=57-
1.C	.	1.C	.	1.C	1.cc	1.cc
*	*	*	*	*clefC4	*	*
=:|!-	=:|!-	=:|!-	=:|!-	=:|!-	=:|!-	=:|!-
*M2/2	*	*M2/2	*	*M2/2	*M2/2	*M2/2
*met(C|)	*	*met(C|)	*	*met(C|)	*met(C|)	*met(C|)
2C/	.	2C/	.	0r	16ee\	1r
.	.	.	.	.	16dd\	.
.	.	.	.	.	8ee\	.
.	.	.	.	.	16ee\	.
.	.	.	.	.	16dd\	.
.	.	.	.	.	8ee\	.
4C/	.	4C/	.	.	16ee\	.
.	.	.	.	.	16dd\	.
.	.	.	.	.	8cc\	.
4G\	.	4G\	.	.	4b\	.
=58-	=58-	=58-	=58-	=58-	=58-	=58-
2D/	.	2D/	.	.	1r	16ff\
.	.	.	.	.	.	16ee\
.	.	.	.	.	.	8ff\
.	.	.	.	.	.	16ff\
.	.	.	.	.	.	16ee\
.	.	.	.	.	.	8ff\
4D/	.	4D/	.	.	.	16ff\
.	.	.	.	.	.	16ee\
.	.	.	.	.	.	8dd\
!	!	!	!	!	!	!LO:TX:b:t=E
4A\	.	4A\	.	.	.	4cc\
=59-	=59-	=59-	=59-	=59-	=59-	=59-
2c\	.	2c\	.	16c\	1r	1r
.	.	.	.	16B\	.	.
.	.	.	.	8c\	.	.
.	.	.	.	16c\	.	.
.	.	.	.	16B\	.	.
.	.	.	.	8c\	.	.
4c\	.	4c\	.	16c\	.	.
.	.	.	.	16B\	.	.
.	.	.	.	8A/	.	.
4G\	.	4G\	.	4G/	.	.
=60-	=60-	=60-	=60-	=60-	=60-	=60-
!LO:TX:t=P:problem:kreska pseudotaktowa	!	!LO:TX:t=P:problem:kreska pseudotaktowa	!	!	!	!
1G	6:5 3:4:3	1G	6:5 3:4:3	1G	16ee\	16gg\
.	.	.	.	.	16dd\	16ff\
.	.	.	.	.	8ee\	8gg\
.	.	.	.	.	16ee\	16gg\
.	.	.	.	.	16dd\	16ff\
.	.	.	.	.	8ee\	8gg\
.	.	.	.	.	16ee\	16gg\
.	.	.	.	.	16dd\	16gg\
.	.	.	.	.	8cc\	8ee\
!	!	!	!	!	!LO:TX:t=P:problem:kreska pseudotaktowa	!
.	.	.	.	.	4b\	4dd\
=61-	=61-	=61-	=61-	=61-	=61-	=61-
4C/	.	4C/	.	4C/	4cc\	4cc\
4G\	.	4G\	.	8G/	4r	4r
.	.	.	.	16G/	.	.
.	.	.	.	16A/	.	.
!	!	!	!	!	!LO:TX:t=P:problem:kreska pseudotaktowa	!
4G\	.	4G\	.	8B\	2r	2r
.	.	.	.	16B\	.	.
.	.	.	.	16c\	.	.
4D/	.	4D/	.	16d\	.	.
.	.	.	.	16d\	.	.
!	!	!	!	!LO:TX:t=P:problem:kreska pseudotaktowa	!	!
.	.	.	.	8d\	.	.
*	*	*	*	*	*	*custos:ee
!	!	!	!	!	!	!LO:PB:g=original
=62-	=62-	=62-	=62-	=62-	=62-	=62-
2A\	.	2A\	.	4r	16cc\	16ee\
.	.	.	.	.	16b\	16dd\
.	.	.	.	.	8cc\	8ee\
.	.	.	.	8A/	16cc\	16ee\
.	.	.	.	.	16b\	16dd\
.	.	.	.	16A/	8cc\	8ee\
.	.	.	.	16B\	.	.
*clefC4	*	*clefC4	*	*	*	*
4c\	.	4c\	.	8c\	16cc\	16ee\
.	.	.	.	.	16b\	16dd\
.	.	.	.	16c\	8a\	8cc\
.	.	.	.	16d\	.	.
!LO:TX:t=P:problem:kreska pseudotaktowa	!	!LO:TX:t=P:problem:kreska pseudotaktowa	!	!	!	!LO:TX:t=P:problem:kreska pseudotaktowa
4e\	.	4e\	.	16e\	4g/	4b/
.	.	.	.	16e\	.	.
.	.	.	.	8e\	.	.
*	*	*	*	*custos:c	*custos:ee	*
!	!	!	!	!LO:LB:g=original	!LO:LB:g=original	!
=63-	=63-	=63-	=63-	=63-	=63-	=63-
2c\	.	2c\	.	4r	16ee\	16gg\
.	.	.	.	.	16dd\	16ff\
.	.	.	.	.	8ee\	8gg\
.	.	.	.	8c\	16ee\	16gg\
.	.	.	.	.	16dd\	16ff\
.	.	.	.	16c\	8ee\	8gg\
.	.	.	.	16d\	.	.
4e\	.	4e\	.	8e\	16ee\	16gg\
.	.	.	.	.	16dd\	16ff\
.	.	.	.	16e\	8cc\	8ee\
.	.	.	.	16f\	.	.
!	!	!	!	!	!LO:TX:t=P:problem:kreska pseudotaktowa	!LO:TX:t=P:problem:kreska pseudotaktowa
4g\	.	4g\	.	16g\	4b\	4dd\
.	.	.	.	16g\	.	.
!	!	!	!	!LO:TX:t=P:problem:kreska pseudotaktowa	!	!
.	.	.	.	8g\	.	.
=64-	=64-	=64-	=64-	=64-	=64-	=64-
2G/	.	2G/	.	16G/	4r	4r
.	.	.	.	16F/	.	.
.	.	.	.	8G/	.	.
.	.	.	.	16G/	8g/	8b/
.	.	.	.	16F/	.	.
.	.	.	.	8G/	16g/	16b/
.	.	.	.	.	16a\	16cc\
4G/	.	4G/	.	16G/	8b\	8dd\
.	.	.	.	16F/	.	.
.	.	.	.	8E/	16b\	16dd\
.	.	.	.	.	16cc\	16ee\
!	!	!	!	!LO:TX:t=P:problem:kreska pseudotaktowa	!	!
4D/	.	4D/	.	4D/	16dd\	16ff\
.	.	.	.	.	16dd\	16ff\
!	!	!	!	!	!LO:TX:t=P:problem:kreska pseudotaktowa	!LO:TX:t=P:problem:kreska pseudotaktowa
.	.	.	.	.	8dd\	8ff\
=65-	=65-	=65-	=65-	=65-	=65-	=65-
2A/	.	2A/	.	16A/	4r	4r
.	.	.	.	16G/	.	.
.	.	.	.	8A/	.	.
.	.	.	.	16A/	8a\	8cc\
.	.	.	.	16G/	.	.
.	.	.	.	8A/	16a\	16cc\
.	.	.	.	.	16b\	16dd\
4A/	.	4A/	.	16A/	8cc\	8ee\
.	.	.	.	16G/	.	.
.	.	.	.	8F/	16cc\	16ee\
.	.	.	.	.	16dd\	16ff\
4E/	.	4E/	.	4E/	16ee\	16gg\
.	.	.	.	.	16ee\	16gg\
.	.	.	.	.	8ee\	8gg\
*	*	*	*	*	*	*custos:ee
!	!	!	!	!	!	!LO:LB:g=original
=66-	=66-	=66-	=66-	=66-	=66-	=66-
2c\	.	2c\	.	16c\	1r	16ee\
.	.	.	.	16B\	.	16dd\
.	.	.	.	8c\	.	8ee\
.	.	.	.	16c\	.	16ee\
.	.	.	.	16B\	.	16dd\
.	.	.	.	8c\	.	8ee\
4c\	.	4c\	.	16c\	.	16ee\
.	.	.	.	16B\	.	16dd\
.	.	.	.	8A/	.	8cc\
!	!	!	!	!	!	!LO:TX:t=P:problem:kreska pseudotaktowa
4G/	.	4G/	.	4G/	.	4b/
=67-	=67-	=67-	=67-	=67-	=67-	=67-
1G	6:5 3:4:3	1G	6:5 3:4:3	1G	16ee\	16gg\
.	.	.	.	.	16dd\	16ff\
.	.	.	.	.	8ee\	8gg\
.	.	.	.	.	16ee\	16gg\
.	.	.	.	.	16dd\	16ff\
.	.	.	.	.	8ee\	8gg\
.	.	.	.	.	16ee\	16gg\
.	.	.	.	.	16dd\	16ff\
.	.	.	.	.	8cc\	8ee\
.	.	.	.	.	4b\	4dd\
=68-	=68-	=68-	=68-	=68-	=68-	=68-
!LO:N:vis=0	!	!LO:N:vis=0	!	!LO:N:vis=0	!LO:N:vis=0	!LO:N:vis=0
0.C;	.	0.C;	.	0.C;	0.cc;<	0.cc;
==	==	==	==	==	==	==
*-	*-	*-	*-	*-	*-	*-
!!!system-decoration: [(s1,s2,s3)]s4,s5
!!!RDF**kern: > = above
!!!RDF**kern: < = below
!!!ENC: Filip Voros
!!!END: 2022-11-09
!!!ENC: Natalia Wrzos
!!!END: 2022-12-01
!!!YEC: Copyright 2022 Narodowy Instytut Fryderyka Chopina (https://polishscores.org)
!!!YEM: License CC-BY-4.0 (https://creativecommons.org/licenses/by/4.0)
